X:254
T:Jackson's Bowl of Punch. VWMLa.254
%%VWML:Anon2-3049-p169-0
F:http://www.vwml.org/record/Anon2/3049/p169
S:Anon. MS, late 18thC, Vaughan Williams Mem. Library
O:England;Yorkshire
Z:vmp/efdss.Simon Wilson. Reviewed PJH 2008.
M:6/8
L:1/8
Q:3/8=120
K:D
(D2B) AGF|(EDE)F2E|(D2B) AGF|EDE FDB,|\
(D2B) AGF|(EDE) FGA|(BdB) (AGF)|EDE FDB,:|
|:(df).d (ce).c|(Bc)B ABc|\
dcd (ef)g|(fe)d (cB)A|\
(d/e/f).d (c/d/e).c|(BcB) (ABc)|\
(dcB) (AGF)|EDE FDB,:|
